src/assets/logo-lg-mitre-blue.svg

<?xml version="1.0" encoding="UTF-8"?>
<svg width="1024px" height="1024px" viewBox="0 0 1024 1024" version="1.1" xmlns="http://www.w3.org/2000/svg" xmlns:xlink="http://www.w3.org/1999/xlink">
    <!-- Generator: Sketch 58 (84663) - https://sketch.com -->
    <title>MITRE Blue</title>
    <desc>Created with Sketch.</desc>
    <g id="MITRE-Blue" stroke="none" stroke-width="1" fill="none" fill-rule="evenodd">
        <circle id="Outline" stroke="#005B95" stroke-width="20" fill="#FFFFFF" cx="512" cy="512" r="502"></circle>
        <path d="M687.190764,142.95004 C648.585239,151.980557 608.378862,182.986028 566.571633,235.966454 C524.764403,288.946879 505.726779,365.776412 509.458759,466.455053 C524.72787,510.749598 537.149478,535.162868 546.723581,539.694862 C553.917798,543.100314 565.51923,548.068034 575.306898,552.773063 C581.858693,555.922576 586.543246,559.31265 590.478053,563.257349 C592.399131,565.183257 592.399131,560.32039 605.452884,584.478321 C608.653305,590.401183 605.452884,594.710483 605.192575,608.874937 C604.911255,624.182661 589.395346,648.491423 558.644849,681.801225 L558.644849,691.396299 L587.845188,723.160577 L598.095382,726.878809 C611.443185,718.01242 621.011911,711.084012 626.801561,706.093585 C635.486036,698.607944 641.162692,697.847466 643.977242,698.607944 C645.748807,699.086613 656.89721,699.919972 658.429863,701.831784 C659.743189,703.47001 661.278606,704.804851 662.608531,706.093585 C664.400379,707.829935 665.819196,709.482587 665.819196,711.680793 C665.819196,714.529961 668.751858,719.229609 668.751858,736.256159 C668.751858,753.282709 668.751858,766.686196 672.138234,778.047021 C675.52461,789.407845 673.864045,784.993453 677.333513,793.258785 C680.498127,800.797859 684.734277,810.858825 690.088389,820.455204 C703.245571,844.037322 714.19554,863.53614 726.767209,881.901061 C727.402067,882.828474 731.122441,887.992154 731.122441,887.992154 C731.122441,887.992154 738.936691,887.992154 741.544188,887.992154 C742.715404,888 745.031641,888.073111 747.116611,887.553629 C748.850254,887.121683 750.75203,886.507462 751.21273,884.556168 C753.766536,873.739525 753.766536,853.495923 754.021026,820.455204 C754.187923,798.786821 753.196465,754.873782 751.046653,688.716088 C744.302557,684.106179 738.852947,680.108073 734.697825,676.72177 C728.46514,671.642314 724.281623,670.350647 721.248482,664.250374 C721.113889,663.979678 716.301289,657.395204 714.364765,653.707484 C712.26567,649.71018 710.422986,644.923477 710.4229,643.855047 C710.422675,641.062193 710.942972,638.682866 711.471808,637.897747 C712.592551,636.233874 714.95365,633.278118 718.635817,632.056634 C720.971024,631.281976 724.245265,631.655639 726.767209,632.056634 C730.895421,632.713028 737.678555,634.660066 747.116611,637.897747 C753.84594,640.323962 758.941504,642.879848 762.403305,645.565405 C766.245072,648.545728 774.6465,654.852714 776.318221,655.994445 C777.989942,657.136176 789.043514,669.168036 792.062136,671.265349 C797.398067,674.972707 802.438413,676.72177 805.640036,676.72177 C806.119988,676.72177 806.119988,645.091792 805.640036,581.831836 L792.062136,569.468233 L783.018652,560.32039 C771.199851,552.896724 763.065592,547.655772 758.615874,544.597534 C748.335555,537.531993 738.866104,532.557946 734.697825,530.589899 C730.529666,528.621909 718.799598,522.564261 703.058382,513.047134 C693.865863,507.489345 682.833639,500.109818 674.287995,493.769048 C661.264454,484.10573 652.231101,475.734877 650.247083,471.092067 C646.859064,463.163753 616.567958,432.845006 616.567958,388.023631 C616.567958,345.319447 643.435208,306.598186 672.138234,275.734469 C690.919687,255.539196 705.642226,241.85723 716.305852,234.68857 C719.954335,232.235864 693.071378,137.408794 707.053963,189.260996 C721.036547,241.113199 704.086678,173.234827 699.926447,162.494979 C696.819971,154.475451 696.987232,154.945976 693.243762,142.592508 C692.854722,141.308675 691.140001,142.496608 690.088389,142.592508 C689.422651,142.653218 688.456775,142.772396 687.190764,142.95004 Z" id="Right" stroke="#005B95" stroke-width="3" fill="#005B95" transform="translate(657.500000, 515.000000) scale(-1, 1) translate(-657.500000, -515.000000) "></path>
        <path d="M392.59095,142.95004 C354.765336,151.980557 315.371209,182.986028 274.40857,235.966454 C233.445931,288.946879 214.792904,365.776412 218.449491,466.455053 C233.410135,510.749598 245.580801,535.162868 254.961489,539.694862 C262.010367,543.100314 273.377427,548.068034 282.967364,552.773063 C289.3868,555.922576 293.976716,559.31265 297.832031,563.257349 C299.7143,565.183257 299.7143,560.32039 312.50434,584.478321 C315.640107,590.401183 312.50434,594.710483 312.24929,608.874937 C311.973654,624.182661 296.771198,648.491423 266.641922,681.801225 L266.641922,691.396299 L295.252356,723.160577 L305.295475,726.878809 C318.373625,718.01242 327.749044,711.084012 333.421731,706.093585 C341.930763,698.607944 347.492738,697.847466 350.25043,698.607944 C351.986205,699.086613 362.909388,699.919972 364.411078,701.831784 C365.697872,703.47001 367.202271,704.804851 368.505328,706.093585 C370.260977,707.829935 371.651132,709.482587 371.651132,711.680793 C371.651132,714.529961 374.524548,719.229609 374.524548,736.256159 C374.524548,753.282709 374.524548,766.686196 377.842512,778.047021 C381.160476,789.407845 379.533458,784.993453 382.932836,793.258785 C386.033519,800.797859 390.18409,810.858825 395.430038,820.455204 C408.321418,844.037322 419.050176,863.53614 431.367871,881.901061 C431.989904,882.828474 435.635119,887.992154 435.635119,887.992154 C435.635119,887.992154 443.291505,887.992154 445.846326,887.992154 C446.993881,888 449.263325,888.073111 451.306175,887.553629 C453.004794,887.121683 454.868151,886.507462 455.319544,884.556168 C457.821758,873.739525 457.821758,853.495923 458.071107,820.455204 C458.234632,798.786821 457.263203,754.873782 455.156822,688.716088 C448.54897,684.106179 443.209454,680.108073 439.138273,676.72177 C433.031501,671.642314 428.932499,670.350647 425.960634,664.250374 C425.82876,663.979678 421.113384,657.395204 419.215982,653.707484 C417.159292,649.71018 415.353835,644.923477 415.35375,643.855047 C415.35353,641.062193 415.863316,638.682866 416.381468,637.897747 C417.47957,636.233874 419.79297,633.278118 423.40075,632.056634 C425.688781,631.281976 428.896876,631.655639 431.367871,632.056634 C435.412685,632.713028 442.058786,634.660066 451.306175,637.897747 C457.899557,640.323962 462.892181,642.879848 466.284046,645.565405 C470.048202,648.545728 478.279904,654.852714 479.917853,655.994445 C481.555802,657.136176 492.386069,669.168036 495.343709,671.265349 C500.571843,674.972707 505.510364,676.72177 508.647308,676.72177 C509.117564,676.72177 509.561758,644.797879 509.979891,580.950097 L495.343709,569.468233 L486.482922,560.32039 C474.902884,552.896724 466.932954,547.655772 462.573129,544.597534 C452.500493,537.531993 443.222345,532.557946 439.138273,530.589899 C435.054319,528.621909 423.561222,522.564261 408.13801,513.047134 C399.131199,507.489345 388.321848,500.109818 379.948844,493.769048 C367.188404,484.10573 358.337544,475.734877 356.393606,471.092067 C353.074033,463.163753 323.394868,432.845006 323.394868,388.023631 C323.394868,345.319447 349.719345,306.598186 377.842512,275.734469 C396.244541,255.539196 410.669656,241.85723 421.117855,234.68857 C424.692631,232.235864 398.352765,137.408794 412.052873,189.260996 C425.752981,241.113199 409.145533,173.234827 405.069347,162.494979 C402.025628,154.475451 402.18951,154.945976 398.521666,142.592508 C398.140485,141.308675 396.460405,142.496608 395.430038,142.592508 C394.777749,142.653218 393.831386,142.772396 392.59095,142.95004 Z" id="Left" stroke="#005B95" stroke-width="3" fill="#005B95"></path>
    </g>
</svg>

<svg width="1024" height="1024" xmlns="http://www.w3.org/2000/svg"><g fill="none" fill-rule="evenodd" stroke="#005B95"><circle stroke-width="20" fill="#FFF" cx="512" cy="512" r="502"/><path d="M627.81 142.95c38.605 9.03 78.811 40.036 120.618 93.016 41.808 52.98 60.845 129.81 57.113 230.49-15.269 44.294-27.69 68.707-37.265 73.239-7.194 3.405-18.795 8.373-28.583 13.078-6.552 3.15-11.236 6.54-15.171 10.484-1.921 1.926-1.921-2.937-14.975 21.221-3.2 5.923 0 10.232.26 24.397.282 15.308 15.798 39.616 46.548 72.926v9.595l-29.2 31.765-10.25 3.718c-13.348-8.867-22.917-15.795-28.707-20.785-8.684-7.486-14.36-8.247-17.175-7.486-1.772.479-12.92 1.312-14.453 3.224-1.313 1.638-2.849 2.973-4.179 4.262-1.791 1.736-3.21 3.389-3.21 5.587 0 2.849-2.933 7.549-2.933 24.575 0 17.027 0 30.43-3.386 41.791-3.387 11.36-1.726 6.946-5.196 15.212-3.164 7.539-7.4 17.6-12.754 27.196-13.158 23.582-24.108 43.081-36.68 61.446-.634.927-4.354 6.091-4.354 6.091h-10.422c-1.171.008-3.488.081-5.573-.438-1.733-.432-3.635-1.047-4.096-2.998-2.554-10.816-2.554-31.06-2.808-64.1-.167-21.67.825-65.582 2.974-131.74 6.744-4.61 12.194-8.608 16.35-11.994 6.232-5.08 10.415-6.371 13.449-12.472.134-.27 4.947-6.855 6.883-10.543 2.1-3.997 3.942-8.784 3.942-9.852 0-2.793-.52-5.172-1.049-5.957-1.12-1.664-3.482-4.62-7.164-5.841-2.335-.775-5.61-.401-8.131 0-4.128.656-10.912 2.603-20.35 5.84-6.729 2.427-11.825 4.983-15.286 7.668-3.842 2.98-12.243 9.288-13.915 10.43-1.672 1.141-12.726 13.173-15.744 15.27-5.336 3.708-10.376 5.457-13.578 5.457-.48 0-.48-31.63 0-94.89l13.578-12.364 9.043-9.148c11.82-7.423 19.953-12.664 24.403-15.722 10.28-7.066 19.75-12.04 23.918-14.008 4.168-1.968 15.898-8.026 31.64-17.543 9.192-5.558 20.224-12.937 28.77-19.278 13.024-9.663 22.057-18.034 24.04-22.677 3.389-7.928 33.68-38.247 33.68-83.068 0-42.705-26.867-81.426-55.57-112.29-18.782-20.195-33.504-33.877-44.168-41.045-3.648-2.453 23.235-97.28 9.252-45.428-13.983 51.852 2.967-16.026 7.128-26.766 3.106-8.02 2.939-7.549 6.682-19.902.39-1.284 2.104-.096 3.156 0 .665.06 1.631.18 2.897.357z" stroke-width="3" fill="#005B95"/><path d="M392.591 142.95c-37.826 9.03-77.22 40.036-118.182 93.016-40.963 52.98-59.616 129.81-55.96 230.49 14.961 44.294 27.132 68.707 36.512 73.239 7.05 3.405 18.416 8.373 28.006 13.078 6.42 3.15 11.01 6.54 14.865 10.484 1.882 1.926 1.882-2.937 14.672 21.221 3.136 5.923 0 10.232-.255 24.397-.275 15.308-15.478 39.616-45.607 72.926v9.595l28.61 31.765 10.043 3.718c13.079-8.867 22.454-15.795 28.127-20.785 8.509-7.486 14.07-8.247 16.828-7.486 1.736.479 12.66 1.312 14.161 3.224 1.287 1.638 2.791 2.973 4.094 4.262 1.756 1.736 3.146 3.389 3.146 5.587 0 2.849 2.874 7.549 2.874 24.575 0 17.027 0 30.43 3.318 41.791 3.317 11.36 1.69 6.946 5.09 15.212 3.1 7.539 7.251 17.6 12.497 27.196 12.891 23.582 23.62 43.081 35.938 61.446.622.927 4.267 6.091 4.267 6.091h10.211c1.148.008 3.417.081 5.46-.438 1.699-.432 3.562-1.047 4.014-2.998 2.502-10.816 2.502-31.06 2.751-64.1.164-21.67-.808-65.582-2.914-131.74-6.608-4.61-11.948-8.608-16.019-11.994-6.106-5.08-10.206-6.371-13.177-12.472-.132-.27-4.848-6.855-6.745-10.543-2.057-3.997-3.862-8.784-3.862-9.852 0-2.793.51-5.172 1.027-5.957 1.099-1.664 3.412-4.62 7.02-5.841 2.288-.775 5.496-.401 7.967 0 4.045.656 10.69 2.603 19.938 5.84 6.594 2.427 11.586 4.983 14.978 7.668 3.764 2.98 11.996 9.288 13.634 10.43 1.638 1.141 12.468 13.173 15.426 15.27 5.228 3.708 10.166 5.457 13.303 5.457.47 0 .915-31.924 1.333-95.772l-14.636-11.482-8.861-9.148c-11.58-7.423-19.55-12.664-23.91-15.722-10.073-7.066-19.35-12.04-23.435-14.008-4.084-1.968-15.577-8.026-31-17.543-9.007-5.558-19.816-12.937-28.19-19.278-12.76-9.663-21.61-18.034-23.554-22.677-3.32-7.928-33-38.247-33-83.068 0-42.705 26.325-81.426 54.449-112.29 18.402-20.195 32.827-33.877 43.275-41.045 3.575-2.453-22.765-97.28-9.065-45.428 13.7 51.852-2.907-16.026-6.984-26.766-3.043-8.02-2.88-7.549-6.547-19.902-.382-1.284-2.062-.096-3.092 0-.652.06-1.599.18-2.839.357z" stroke-width="3" fill="#005B95"/></g></svg>
